launcher/android/assets/skins/day/svg/mega.svg

<svg enable-background="new 0 0 220.00 220.00" height="220" viewBox="0 0 220 220" width="220" xmlns="http://www.w3.org/2000/svg"><g stroke-linejoin="round"><path d="m109.936 24.8991c50.12 0 90.75 28.2059 90.75 63 0 14.9179-7.469 28.6249-19.953 39.4169l-4.547 5.083-10 7-7 11.5-7 14-7.5 10.5-5-1-1.5-9-1.261-17.333c-8.526 1.841-17.591 2.833-26.989 2.833-50.1198 0-90.75-28.206-90.75-62.9999 0-34.7941 40.6302-63 90.75-63z" fill="#e4e4e1" stroke="#000" stroke-width="5"/><path d="m178.686 50.2969c-16.04-14.5168-41.487-23.8978-70.137-23.8978-48.5258 0-87.8631 26.9105-87.8631 60.1065 0 9.4687 3.2003 18.4254 8.9015 26.3934l20.5425-10.845c-4.4337-5.4544-6.9337-11.6301-6.9337-18.1724 0-22.1305 28.609-40.0709 63.8998-40.0709 17.793 0 33.888 4.5604 45.474 11.9191z" fill="#9bcbe0" stroke-width=".2"/><ellipse cx="108.686" cy="84.8987" fill="#fff" rx="66" ry="41.9999" stroke-width=".2"/><g fill="#a9090b" stroke="#a9090b" stroke-width="2"><path d="m80.741 104.132h-9.5992v-17.1289c0-4.3629-1.7498-6.5445-5.2493-6.5445-1.6601 0-3.0132.6545-4.0597 1.9634-1.0467 1.309-1.5699 2.9434-1.5699 4.9035v16.8065h-9.599v-17.3091c0-4.2428-1.7231-6.3643-5.1695-6.3643-1.7332 0-3.1181.6261-4.1546 1.8781-1.0366 1.252-1.5548 2.9529-1.5548 5.1028v16.6925h-9.5991v-30.3505h9.5991v4.989h.1299c1.02-1.6567 2.4531-3.0034 4.2997-4.0405 1.8464-1.037 3.8629-1.5555 6.0493-1.5555 4.5329 0 7.6326 1.9254 9.2991 5.7762 2.4331-3.8508 6.0161-5.7762 10.7489-5.7762 6.9526 0 10.4291 4.0532 10.4291 12.1593z"/><path d="m117.217 91.3849h-20.4777c.3333 4.4516 3.2363 6.6773 8.7087 6.6773 3.493 0 6.563-.8095 9.209-2.4281v6.8289c-2.926 1.518-6.725 2.276-11.398 2.276-5.1064 0-9.0695-1.346-11.8891-4.04-2.8197-2.6938-4.2298-6.4497-4.2298-11.2678 0-5.0015 1.5132-8.9614 4.5396-11.8794 3.0264-2.9182 6.7461-4.3773 11.1593-4.3773 4.579 0 8.12 1.2884 10.624 3.8651 2.503 2.5766 3.754 6.0718 3.754 10.4851zm-8.959-5.463c0-4.0467-1.823-6.0702-5.469-6.0702-1.553 0-2.8984.5801-4.0348 1.7404-1.1366 1.1604-1.8282 2.6035-2.075 4.3298z"/><path d="m154.333 100.851c0 5.671-1.668 10.064-5.004 13.178-3.336 3.115-8.168 4.672-14.494 4.672-4.179 0-7.492-.55-9.939-1.651v-7.455c3.194 1.619 6.413 2.429 9.66 2.429 3.232 0 5.737-.89 7.514-2.67 1.776-1.78 2.665-4.201 2.665-7.261v-2.5607h-.12c-2.22 3.4717-5.493 5.2067-9.82 5.2067-4.012 0-7.199-1.351-9.558-4.054-2.36-2.7034-3.54-6.328-3.54-10.8744 0-5.0965 1.311-9.1433 3.934-12.1404s6.078-4.4957 10.364-4.4957c3.833 0 6.703 1.4608 8.609 4.3819h.131v-3.7749h9.598zm-9.479-11.3156v-2.3331c0-1.8654-.573-3.4556-1.719-4.7709-1.147-1.315-2.637-1.9728-4.47-1.9728-2.093 0-3.738.7873-4.934 2.3619-1.197 1.5743-1.795 3.7938-1.795 6.6582 0 2.4532.568 4.396 1.705 5.8282 1.136 1.4321 2.691 2.1482 4.664 2.1482 1.953 0 3.533-.7255 4.74-2.1766 1.206-1.4512 1.809-3.3656 1.809-5.7431z"/><path d="m190.17 104.132h-9.599v-4.5238h-.13c-2.167 3.4208-5.373 5.1308-9.619 5.1308-3.133 0-5.598-.83-7.394-2.489-1.797-1.66-2.695-3.8748-2.695-6.6444 0-5.8487 3.709-9.2252 11.129-10.1295l8.769-1.0907c0-3.0225-1.91-4.5337-5.73-4.5337-3.846 0-7.502 1.0117-10.969 3.035v-7.1323c1.394-.683 3.302-1.2835 5.725-1.8021s4.628-.7778 6.614-.7778c9.266 0 13.899 4.2998 13.899 12.899zm-9.539-12.3013v-1.9823l-5.98.6924c-3.306.3794-4.959 1.7105-4.959 3.993 0 1.0308.402 1.8765 1.205 2.5372s1.891.9912 3.264.9912c1.914 0 3.47-.588 4.67-1.7642 1.2-1.1761 1.8-2.6652 1.8-4.4673z"/></g></g></svg>

﻿<?xml version="1.0" encoding="utf-8"?>
<!DOCTYPE svg PUBLIC "-//W3C//DTD SVG 1.1//EN" "http://www.w3.org/Graphics/SVG/1.1/DTD/svg11.dtd">
<svg xmlns="http://www.w3.org/2000/svg" xmlns:xlink="http://www.w3.org/1999/xlink" version="1.1" baseProfile="full" width="220" height="220" viewBox="0 0 220.00 220.00" enable-background="new 0 0 220.00 220.00" xml:space="preserve">
	<path fill="#E4E4E1" fill-opacity="1" stroke-width="5" stroke-linejoin="round" stroke="#000000" stroke-opacity="1" d="M 109.936,24.8991C 160.056,24.8991 200.686,53.105 200.686,87.8991C 200.686,102.817 193.217,116.524 180.733,127.316L 176.186,132.399L 166.186,139.399L 159.186,150.899L 152.186,164.899L 144.686,175.399L 139.686,174.399L 138.186,165.399L 136.925,148.066C 128.399,149.907 119.334,150.899 109.936,150.899C 59.8162,150.899 19.186,122.693 19.186,87.8991C 19.186,53.105 59.8162,24.8991 109.936,24.8991 Z "/>
	<path fill="#9BCBE0" fill-opacity="1" stroke-width="0.2" stroke-linejoin="round" d="M 178.686,50.2969C 162.646,35.7801 137.199,26.3991 108.549,26.3991C 60.0232,26.3991 20.6859,53.3096 20.6859,86.5056C 20.6859,95.9743 23.8862,104.931 29.5874,112.899L 50.1299,102.054C 45.6962,96.5996 43.1962,90.4239 43.1962,83.8816C 43.1962,61.7511 71.8052,43.8107 107.096,43.8107C 124.889,43.8107 140.984,48.3711 152.57,55.7298L 178.686,50.2969 Z "/>
	<ellipse fill="#FFFFFF" fill-opacity="1" stroke-width="0.2" stroke-linejoin="round" cx="108.686" cy="84.8987" rx="66" ry="41.9999"/>
	<g>
		<path fill="#A9090B" fill-opacity="1" stroke-width="2" stroke-linejoin="round" stroke="#A9090B" stroke-opacity="1" d="M 80.741,104.132L 71.1418,104.132L 71.1418,87.0031C 71.1418,82.6402 69.392,80.4586 65.8925,80.4586C 64.2324,80.4586 62.8793,81.1131 61.8328,82.422C 60.7861,83.731 60.2629,85.3654 60.2629,87.3255L 60.2629,104.132L 50.6639,104.132L 50.6639,86.8229C 50.6639,82.5801 48.9408,80.4586 45.4944,80.4586C 43.7612,80.4586 42.3763,81.0847 41.3398,82.3367C 40.3032,83.5887 39.785,85.2896 39.785,87.4395L 39.785,104.132L 30.1859,104.132L 30.1859,73.7815L 39.785,73.7815L 39.785,78.7705L 39.9149,78.7705C 40.9349,77.1138 42.368,75.7671 44.2146,74.73C 46.061,73.693 48.0775,73.1745 50.2639,73.1745C 54.7968,73.1745 57.8965,75.0999 59.563,78.9507C 61.9961,75.0999 65.5791,73.1745 70.3119,73.1745C 77.2645,73.1745 80.741,77.2277 80.741,85.3338L 80.741,104.132 Z "/>
		<path fill="#A9090B" fill-opacity="1" stroke-width="2" stroke-linejoin="round" stroke="#A9090B" stroke-opacity="1" d="M 117.217,91.3849L 96.7393,91.3849C 97.0726,95.8365 99.9756,98.0622 105.448,98.0622C 108.941,98.0622 112.011,97.2527 114.657,95.6341L 114.657,102.463C 111.731,103.981 107.932,104.739 103.259,104.739C 98.1526,104.739 94.1895,103.393 91.3699,100.699C 88.5502,98.0052 87.1401,94.2493 87.1401,89.4312C 87.1401,84.4297 88.6533,80.4698 91.6797,77.5518C 94.7061,74.6336 98.4258,73.1745 102.839,73.1745C 107.418,73.1745 110.959,74.4629 113.463,77.0396C 115.966,79.6162 117.217,83.1114 117.217,87.5247L 117.217,91.3849 Z M 108.258,85.9219C 108.258,81.8752 106.435,79.8517 102.789,79.8517C 101.236,79.8517 99.8906,80.4318 98.7542,81.5921C 97.6176,82.7525 96.926,84.1956 96.6792,85.9219L 108.258,85.9219 Z "/>
		<path fill="#A9090B" fill-opacity="1" stroke-width="2" stroke-linejoin="round" stroke="#A9090B" stroke-opacity="1" d="M 154.333,100.851C 154.333,106.522 152.665,110.915 149.329,114.029C 145.993,117.144 141.161,118.701 134.835,118.701C 130.656,118.701 127.343,118.151 124.896,117.05L 124.896,109.595C 128.09,111.214 131.309,112.024 134.556,112.024C 137.788,112.024 140.293,111.134 142.07,109.354C 143.846,107.574 144.735,105.153 144.735,102.093L 144.735,99.5323L 144.615,99.5323C 142.395,103.004 139.122,104.739 134.795,104.739C 130.783,104.739 127.596,103.388 125.237,100.685C 122.877,97.9816 121.697,94.357 121.697,89.8106C 121.697,84.7141 123.008,80.6673 125.631,77.6702C 128.254,74.6731 131.709,73.1745 135.995,73.1745C 139.828,73.1745 142.698,74.6353 144.604,77.5564L 144.735,77.5564L 144.735,73.7815L 154.333,73.7815L 154.333,100.851 Z M 144.854,89.5354L 144.854,87.2023C 144.854,85.3369 144.281,83.7467 143.135,82.4314C 141.988,81.1164 140.498,80.4586 138.665,80.4586C 136.572,80.4586 134.927,81.2459 133.731,82.8205C 132.534,84.3948 131.936,86.6143 131.936,89.4787C 131.936,91.9319 132.504,93.8747 133.641,95.3069C 134.777,96.739 136.332,97.4551 138.305,97.4551C 140.258,97.4551 141.838,96.7296 143.045,95.2785C 144.251,93.8273 144.854,91.9129 144.854,89.5354 Z "/>
		<path fill="#A9090B" fill-opacity="1" stroke-width="2" stroke-linejoin="round" stroke="#A9090B" stroke-opacity="1" d="M 190.17,104.132L 180.571,104.132L 180.571,99.6082L 180.441,99.6082C 178.274,103.029 175.068,104.739 170.822,104.739C 167.689,104.739 165.224,103.909 163.428,102.25C 161.631,100.59 160.733,98.3752 160.733,95.6056C 160.733,89.7569 164.442,86.3804 171.862,85.4761L 180.631,84.3854C 180.631,81.3629 178.721,79.8517 174.901,79.8517C 171.055,79.8517 167.399,80.8634 163.932,82.8867L 163.932,75.7544C 165.326,75.0714 167.234,74.4709 169.657,73.9523C 172.08,73.4337 174.285,73.1745 176.271,73.1745C 185.537,73.1745 190.17,77.4743 190.17,86.0735L 190.17,104.132 Z M 180.631,91.8307L 180.631,89.8484L 174.651,90.5408C 171.345,90.9202 169.692,92.2513 169.692,94.5338C 169.692,95.5646 170.094,96.4103 170.897,97.071C 171.7,97.7317 172.788,98.0622 174.161,98.0622C 176.075,98.0622 177.631,97.4742 178.831,96.298C 180.031,95.1219 180.631,93.6328 180.631,91.8307 Z "/>
	</g>
</svg>
